;FLAVOR:Marlin
;TIME:14857
;Filament used: 16.7317m
;Layer height: 0.28
;MINX:41.558
;MINY:60.5
;MINZ:0.28
;MAXX:258.459
;MAXY:149.5
;MAXZ:19.88
;Generated with Cura_SteamEngine 5.2.1
M140 S50
M105
M190 S50
M104 S200
M105
M109 S200
M82 ;absolute extrusion mode
M201 X500.00 Y500.00 Z100.00 E5000.00 ;Setup machine max acceleration
M203 X500.00 Y500.00 Z10.00 E50.00 ;Setup machine max feedrate
M204 P500.00 R1000.00 T500.00 ;Setup Print/Retract/Travel acceleration
M205 X8.00 Y8.00 Z0.40 E5.00 ;Setup Jerk
M220 S100 ;Reset Feedrate
M221 S100 ;Reset Flowrate

G28 ;Home
G29 ;Auto bed Level

G92 E0 ;Reset Extruder
G1 Z2.0 F3000 ;Move Z Axis up
G1 X10.1 Y20 Z0.28 F5000.0 ;Move to start position
G1 X10.1 Y200.0 Z0.28 F1500.0 E15 ;Draw the first line
G1 X10.4 Y200.0 Z0.28 F5000.0 ;Move to side a little
G1 X10.4 Y20 Z0.28 F1500.0 E30 ;Draw the second line
G92 E0 ;Reset Extruder
G1 Z2.0 F3000 ;Move Z Axis up

G92 E0
G92 E0
G1 F2700 E-5
;LAYER_COUNT:71
;LAYER:0
M107
G0 F6000 X51.455 Y63.106 Z0.28
;TYPE:SKIRT
G1 F2700 E0
G1 F1200 X52.198 Y62.533 E0.04369
G1 X52.986 Y62.026 E0.08732
G1 X53.815 Y61.587 E0.131
G1 X54.679 Y61.22 E0.17471
G1 X55.57 Y60.929 E0.21836
G1 X56.483 Y60.714 E0.26203
G1 X57.411 Y60.578 E0.30571
G1 X58.319 Y60.522 E0.34807
G1 X59.312 Y60.502 E0.39432
G1 X112.134 Y60.5 E2.85393
G1 X113.005 Y60.511 E2.89449
G1 X114.198 Y60.557 E2.95008
G1 X116.837 Y60.632 E3.07301
G1 X119.33 Y60.632 E3.1891
G1 X122.9 Y60.519 E3.35542
G1 X124.083 Y60.5 E3.41051
G1 X237.488 Y60.501 E8.69112
G1 X238.185 Y60.511 E8.72358
G1 X239.121 Y60.565 E8.76724
G1 X240.05 Y60.698 E8.81093
G1 X240.963 Y60.909 E8.85457
G1 X241.856 Y61.198 E8.89827
G1 X242.72 Y61.561 E8.94191
G1 X243.55 Y61.997 E8.98557
G1 X244.341 Y62.502 E9.02927
G1 X245.085 Y63.073 E9.07294
G1 X245.778 Y63.705 E9.11661
G1 X246.415 Y64.394 E9.1603
G1 X246.991 Y65.134 E9.20397
G1 X247.501 Y65.921 E9.24764
G1 X247.788 Y66.438 E9.27517
G1 X248.158 Y67.15 E9.31253
G1 X250.721 Y72.285 E9.57977
G1 X251.006 Y72.879 E9.61045
G1 X251.267 Y73.466 E9.64036
G1 X251.653 Y74.408 E9.68776
G1 X253.704 Y79.695 E9.95182
G1 X253.915 Y80.26 E9.97991
G1 X254.136 Y80.914 E10.01205
G1 X254.424 Y81.863 E10.05823
G1 X256.003 Y87.412 E10.32687
G1 X256.141 Y87.928 E10.35175
G1 X256.289 Y88.559 E10.38193
G1 X256.54 Y89.788 E10.44033
G1 X257.513 Y95.011 E10.68772
G1 X257.64 Y95.742 E10.72227
G1 X257.735 Y96.413 E10.75383
G1 X257.845 Y97.413 E10.80067
G1 X258.355 Y102.971 E11.06056
G1 X258.412 Y103.703 E11.09475
G1 X258.443 Y104.36 E11.12538
G1 X258.459 Y105.351 E11.17153
G1 X258.45 Y111.099 E11.43918
G1 X258.441 Y111.66 E11.46531
G1 X258.41 Y112.32 E11.49607
G1 X258.316 Y113.535 E11.55282
G1 X257.813 Y118.826 E11.8003
G1 X257.73 Y119.597 E11.83641
G1 X257.636 Y120.27 E11.86805
G1 X257.429 Y121.467 E11.92461
G1 X256.402 Y126.878 E12.18107
G1 X256.285 Y127.45 E12.20826
G1 X256.132 Y128.097 E12.23922
G1 X255.826 Y129.23 E12.29386
G1 X254.295 Y134.542 E12.55128
G1 X254.117 Y135.127 E12.57975
G1 X253.906 Y135.75 E12.61038
G1 X253.483 Y136.886 E12.66683
G1 X251.565 Y141.783 E12.91172
G1 X251.22 Y142.632 E12.95439
G1 X250.83 Y143.485 E12.99806
G1 X250.368 Y144.301 E13.04173
G1 X249.839 Y145.075 E13.08538
G1 X249.245 Y145.802 E13.1291
G1 X248.592 Y146.475 E13.17276
G1 X247.884 Y147.089 E13.2164
G1 X247.126 Y147.642 E13.26009
G1 X246.323 Y148.127 E13.30377
G1 X245.482 Y148.543 E13.34746
G1 X244.609 Y148.885 E13.39112
G1 X243.71 Y149.152 E13.43479
G1 X242.792 Y149.342 E13.47844
G1 X241.86 Y149.452 E13.52214
G1 X241.236 Y149.481 E13.55123
G1 X240.111 Y149.5 E13.60362
G1 X62.086 Y149.499 E21.89321
G1 X61.392 Y149.489 E21.92553
G1 X60.455 Y149.435 E21.96923
G1 X59.527 Y149.302 E22.01288
G1 X58.613 Y149.091 E22.05656
G1 X57.721 Y148.802 E22.10022
G1 X56.856 Y148.438 E22.14392
G1 X56.026 Y148.002 E22.18758
G1 X55.236 Y147.497 E22.23124
G1 X54.491 Y146.927 E22.27492
G1 X53.798 Y146.295 E22.31859
G1 X53.162 Y145.606 E22.36225
G1 X52.586 Y144.866 E22.40592
G1 X52.076 Y144.079 E22.44959
G1 X51.649 Y143.282 E22.49169
G1 X51.185 Y142.32 E22.54142
G1 X48.623 Y136.768 E22.82614
G1 X48.329 Y136.106 E22.85987
G1 X48.079 Y135.492 E22.89074
G1 X47.678 Y134.414 E22.9443
G1 X45.636 Y128.56 E23.23299
G1 X45.405 Y127.869 E23.26692
G1 X45.208 Y127.209 E23.29899
G1 X44.858 Y125.877 E23.36312
G1 X43.412 Y119.93 E23.6481
G1 X43.287 Y119.382 E23.67428
G1 X43.155 Y118.702 E23.70653
G1 X42.938 Y117.358 E23.76992
G1 X42.087 Y111.389 E24.05068
G1 X42.001 Y110.718 E24.08218
G1 X41.936 Y110.047 E24.11357
G1 X41.861 Y108.895 E24.16732
G1 X41.581 Y102.703 E24.45594
G1 X41.558 Y101.965 E24.49032
G1 X41.559 Y101.286 E24.52194
G1 X41.604 Y99.94 E24.58465
G1 X41.927 Y93.744 E24.87356
G1 X41.96 Y93.25 E24.89661
G1 X42.027 Y92.57 E24.92843
G1 X42.18 Y91.389 E24.98388
G1 X43.09 Y85.312 E25.27
G1 X43.206 Y84.595 E25.30382
G1 X43.345 Y83.888 E25.33738
G1 X43.657 Y82.542 E25.40171
G1 X45.116 Y76.731 E25.6807
G1 X45.291 Y76.07 E25.71254
G1 X45.487 Y75.415 E25.74437
G1 X45.926 Y74.107 E25.80862
G1 X47.961 Y68.407 E26.09044
G1 X48.243 Y67.654 E26.12788
G1 X48.61 Y66.791 E26.17155
G1 X49.049 Y65.962 E26.21523
G1 X49.557 Y65.173 E26.25892
G1 X50.13 Y64.431 E26.30258
G1 X50.764 Y63.74 E26.34624
G1 X51.455 Y63.106 E26.38991
G0 F6000 X51.791 Y63.347
G1 F1200 X52.525 Y62.792 E26.43276
G1 X53.305 Y62.303 E26.47563
G1 X54.125 Y61.884 E26.51851
G1 X54.978 Y61.537 E26.56139
G1 X55.857 Y61.265 E26.60423
G1 X56.757 Y61.071 E26.6471
G1 X57.671 Y60.956 E26.69
G1 X58.328 Y60.922 E26.72063
G1 X59.534 Y60.9 E26.7768
G1 X112.134 Y60.9 E29.22607
G1 X113 Y60.911 E29.2664
G1 X114.169 Y60.957 E29.32088
G1 X116.826 Y61.032 E29.44465
G1 X119.312 Y61.032 E29.5604
G1 X122.749 Y60.922 E29.72053
G1 X124.083 Y60.9 E29.78265
G1 X237.482 Y60.901 E35.06299
G1 X238.179 Y60.911 E35.09544
G1 X239.098 Y60.964 E35.13831
G1 X240.009 Y61.097 E35.18118
G1 X240.905 Y61.308 E35.22404
G1 X241.78 Y61.596 E35.26693
G1 X242.626 Y61.96 E35.30982
G1 X243.437 Y62.395 E35.35267
G1 X244.208 Y62.898 E35.39554
G1 X244.932 Y63.467 E35.43842
G1 X245.603 Y64.097 E35.48127
G1 X246.218 Y64.782 E35.52414
G1 X246.771 Y65.518 E35.56701
G1 X247.433 Y66.622 E35.62695
G1 X247.803 Y67.334 E35.66431
G1 X250.36 Y72.458 E35.93096
G1 X250.645 Y73.052 E35.96164
G1 X250.896 Y73.618 E35.99047
G1 X251.357 Y74.746 E36.04721
G1 X253.282 Y79.71 E36.29513
G1 X253.54 Y80.4 E36.32943
G1 X253.753 Y81.03 E36.3604
G1 X254.094 Y82.157 E36.41523
G1 X255.572 Y87.354 E36.66682
G1 X255.754 Y88.031 E36.69946
G1 X255.898 Y88.639 E36.72855
G1 X256.147 Y89.862 E36.78667
G1 X257.12 Y95.085 E37.03406
G1 X257.246 Y95.81 E37.06832
G1 X257.337 Y96.457 E37.09875
G1 X257.467 Y97.65 E37.15463
G1 X257.957 Y103.007 E37.40511
G1 X258.013 Y103.734 E37.43906
G1 X258.043 Y104.367 E37.46857
G1 X258.059 Y105.358 E37.51472
G1 X258.05 Y111.093 E37.78177
G1 X258.041 Y111.654 E37.8079
G1 X258.011 Y112.29 E37.83754
G1 X257.917 Y113.497 E37.89392
G1 X257.4 Y118.926 E38.14786
G1 X257.332 Y119.554 E38.17727
G1 X257.242 Y120.203 E38.20778
G1 X257.07 Y121.207 E38.25521
G1 X256.01 Y126.798 E38.52019
G1 X255.893 Y127.37 E38.54738
G1 X255.746 Y127.994 E38.57723
G1 X255.442 Y129.119 E38.63149
G1 X253.957 Y134.274 E38.88129
G1 X253.734 Y135.011 E38.91714
G1 X253.531 Y135.611 E38.94664
G1 X253.111 Y136.74 E39.00273
G1 X251.193 Y141.637 E39.24762
G1 X250.85 Y142.481 E39.29004
G1 X250.466 Y143.318 E39.33292
G1 X250.011 Y144.119 E39.37582
G1 X249.488 Y144.876 E39.41866
G1 X248.901 Y145.586 E39.46156
G1 X248.255 Y146.242 E39.50443
G1 X247.555 Y146.839 E39.54727
G1 X246.805 Y147.374 E39.59017
G1 X246.012 Y147.841 E39.63302
G1 X245.181 Y148.238 E39.6759
G1 X244.319 Y148.561 E39.71877
G1 X243.432 Y148.808 E39.76164
G1 X242.527 Y148.977 E39.80451
G1 X241.228 Y149.081 E39.86519
G1 X240.111 Y149.1 E39.91721
G1 X62.091 Y149.099 E48.20657
G1 X61.397 Y149.089 E48.23888
G1 X60.478 Y149.036 E48.28175
G1 X59.567 Y148.903 E48.32462
G1 X58.671 Y148.692 E48.36748
G1 X57.797 Y148.403 E48.41035
G1 X56.951 Y148.04 E48.45321
G1 X56.139 Y147.605 E48.49611
G1 X55.369 Y147.101 E48.53896
G1 X54.645 Y146.532 E48.58184
G1 X53.973 Y145.903 E48.6247
G1 X53.358 Y145.217 E48.6676
G1 X52.806 Y144.481 E48.71043
G1 X52.319 Y143.7 E48.75329
G1 X52.009 Y143.108 E48.78441
G1 X51.548 Y142.152 E48.83383
G1 X48.986 Y136.6 E49.11855
G1 X48.695 Y135.944 E49.15197
G1 X48.454 Y135.353 E49.18169
G1 X47.978 Y134.067 E49.24554
G1 X46.013 Y128.428 E49.5236
G1 X45.784 Y127.742 E49.55728
G1 X45.594 Y127.107 E49.58814
G1 X45.298 Y125.988 E49.64204
G1 X43.802 Y119.841 E49.93662
G1 X43.677 Y119.293 E49.9628
G1 X43.55 Y118.638 E49.99386
G1 X43.334 Y117.301 E50.05693
G1 X42.461 Y111.171 E50.34524
G1 X42.397 Y110.667 E50.3689
G1 X42.335 Y110.021 E50.39912
G1 X42.26 Y108.869 E50.45288
G1 X41.981 Y102.685 E50.74112
G1 X41.958 Y101.953 E50.77522
G1 X41.958 Y101.299 E50.80568
G1 X42.003 Y99.961 E50.86801
G1 X42.317 Y93.926 E51.14941
G1 X42.36 Y93.276 E51.17974
G1 X42.424 Y92.621 E51.21039
G1 X42.606 Y91.229 E51.27576
G1 X43.485 Y85.372 E51.55154
G1 X43.601 Y84.659 E51.58517
G1 X43.734 Y83.978 E51.61748
G1 X43.997 Y82.838 E51.67196
G1 X45.504 Y76.829 E51.96043
G1 X45.678 Y76.173 E51.99203
G1 X45.867 Y75.541 E52.02275
G1 X46.303 Y74.242 E52.08655
G1 X48.397 Y68.38 E52.3764
G1 X48.617 Y67.794 E52.40555
G1 X48.978 Y66.947 E52.44842
G1 X49.411 Y66.135 E52.49127
G1 X49.913 Y65.363 E52.53415
G1 X50.479 Y64.637 E52.57702
G1 X51.107 Y63.964 E52.61988
G1 X51.791 Y63.347 E52.66277
G0 F6000 X52.125 Y63.59
G1 F1200 X52.852 Y63.054 E52.70483
G1 X53.623 Y62.584 E52.74688
G1 X54.433 Y62.184 E52.78894
G1 X55.275 Y61.857 E52.831
G1 X56.142 Y61.606 E52.87303
G1 X57.029 Y61.433 E52.91511
G1 X58.336 Y61.322 E52.97619
G1 X59.534 Y61.3 E53.03198
G1 X112.134 Y61.3 E55.48126
G1 X113.286 Y61.319 E55.53491
G1 X114.212 Y61.358 E55.57806
G1 X116.814 Y61.432 E55.69927
G1 X119.325 Y61.432 E55.8162
G1 X122.914 Y61.318 E55.9834
G1 X123.909 Y61.301 E56.02974
G1 X237.476 Y61.301 E61.31789
G1 X238.173 Y61.311 E61.35035
G1 X239.075 Y61.364 E61.39243
G1 X239.968 Y61.496 E61.43446
G1 X240.846 Y61.707 E61.47651
G1 X241.702 Y61.995 E61.51856
G1 X242.53 Y62.358 E61.56066
G1 X243.321 Y62.792 E61.60267
G1 X244.072 Y63.294 E61.64473
G1 X244.775 Y63.861 E61.68679
G1 X245.425 Y64.488 E61.72884
G1 X246.017 Y65.17 E61.77089
G1 X246.547 Y65.901 E61.81294
G1 X247.078 Y66.807 E61.86184
G1 X247.524 Y67.667 E61.90695
G1 X249.93 Y72.488 E62.15784
G1 X250.284 Y73.225 E62.19591
G1 X250.526 Y73.769 E62.22363
G1 X250.984 Y74.891 E62.28006
G1 X252.909 Y79.855 E62.52798
G1 X253.165 Y80.54 E62.56203
G1 X253.37 Y81.146 E62.59182
G1 X253.709 Y82.267 E62.64635
G1 X255.23 Y87.619 E62.90543
G1 X255.368 Y88.135 E62.9303
G1 X255.506 Y88.719 E62.95824
G1 X255.718 Y89.752 E63.00735
G1 X256.75 Y95.288 E63.26957
G1 X256.852 Y95.878 E63.29745
G1 X256.94 Y96.501 E63.32675
G1 X257.069 Y97.687 E63.3823
G1 X257.559 Y103.044 E63.63278
G1 X257.615 Y103.764 E63.66641
G1 X257.643 Y104.373 E63.6948
G1 X257.659 Y105.364 E63.74095
G1 X257.65 Y111.087 E64.00744
G1 X257.641 Y111.648 E64.03356
G1 X257.612 Y112.259 E64.06204
G1 X257.519 Y113.459 E64.11809
G1 X257.003 Y118.883 E64.37179
G1 X256.935 Y119.511 E64.40121
G1 X256.848 Y120.135 E64.43054
G1 X256.676 Y121.139 E64.47797
G1 X255.618 Y126.718 E64.74239
G1 X255.501 Y127.29 E64.76957
G1 X255.359 Y127.89 E64.79828
G1 X255.057 Y129.008 E64.85221
G1 X253.529 Y134.309 E65.10909
G1 X253.351 Y134.894 E65.13757
G1 X253.156 Y135.472 E65.16597
G1 X252.739 Y136.594 E65.22171
G1 X250.821 Y141.491 E65.4666
G1 X250.479 Y142.331 E65.50883
G1 X250.102 Y143.151 E65.55086
G1 X249.654 Y143.935 E65.5929
G1 X249.138 Y144.676 E65.63495
G1 X248.558 Y145.369 E65.67703
G1 X247.92 Y146.007 E65.71904
G1 X247.227 Y146.587 E65.76112
G1 X246.486 Y147.103 E65.80317
G1 X245.702 Y147.552 E65.84523
G1 X244.882 Y147.929 E65.88726
G1 X244.031 Y148.232 E65.92932
G1 X243.157 Y148.459 E65.97137
G1 X242.266 Y148.608 E66.01343
G1 X241.221 Y148.681 E66.06221
G1 X240.111 Y148.7 E66.11391
G1 X62.097 Y148.699 E74.40298
G1 X61.403 Y148.689 E74.4353
G1 X60.501 Y148.636 E74.47738
G1 X59.608 Y148.503 E74.51942
G1 X58.73 Y148.292 E74.56146
G1 X57.874 Y148.005 E74.6035
G1 X57.047 Y147.642 E74.64556
G1 X56.255 Y147.208 E74.68761
G1 X55.505 Y146.705 E74.72966
G1 X54.802 Y146.138 E74.77172
G1 X54.152 Y145.512 E74.81374
G1 X53.559 Y144.83 E74.85582
G1 X53.03 Y144.098 E74.89787
G1 X52.369 Y142.933 E74.96024
G1 X51.912 Y141.985 E75.00925
G1 X49.282 Y136.284 E75.3016
G1 X49.06 Y135.782 E75.32716
G1 X48.829 Y135.213 E75.35575
G1 X48.356 Y133.935 E75.41921
G1 X46.391 Y128.296 E75.69727
G1 X46.164 Y127.616 E75.73065
G1 X45.981 Y127.004 E75.76039
G1 X45.635 Y125.688 E75.82375
G1 X44.192 Y119.752 E76.10821
G1 X44.067 Y119.204 E76.13438
G1 X43.944 Y118.574 E76.16427
G1 X43.76 Y117.443 E76.21763
G1 X42.879 Y111.276 E76.5077
G1 X42.794 Y110.617 E76.53864
G1 X42.735 Y109.995 E76.56774
G1 X42.648 Y108.637 E76.6311
G1 X42.38 Y102.667 E76.90937
G1 X42.358 Y101.941 E76.94319
G1 X42.358 Y101.312 E76.97248
G1 X42.394 Y100.186 E77.02494
G1 X42.717 Y93.947 E77.31584
G1 X42.759 Y93.303 E77.34589
G1 X42.821 Y92.673 E77.37537
G1 X43.002 Y91.288 E77.44041
G1 X43.9 Y85.307 E77.72203
G1 X43.995 Y84.723 E77.74958
G1 X44.124 Y84.068 E77.78067
G1 X44.433 Y82.737 E77.84429
G1 X45.892 Y76.926 E78.12327
G1 X46.064 Y76.276 E78.15458
G1 X46.246 Y75.668 E78.18413
G1 X46.611 Y74.575 E78.23779
G1 X48.715 Y68.676 E78.52942
G1 X48.992 Y67.935 E78.56626
G1 X49.346 Y67.104 E78.60832
G1 X49.773 Y66.308 E78.65038
G1 X50.268 Y65.553 E78.69242
G1 X50.828 Y64.845 E78.73445
G1 X51.449 Y64.189 E78.77651
G1 X52.125 Y63.59 E78.81857
G1 F2700 E73.81857
;MESH:Bracket11jan.STL(1)
G0 F6000 X55.331 Y78.504
G0 X61.921 Y137.9
;TYPE:WALL-INNER
G1 F2700 E78.81857
G1 F1200 X240.628 Y137.899 E87.13992
G1 X243.007 Y131.82 E87.44388
G1 X244.911 Y125.206 E87.76437
G1 X246.198 Y118.431 E88.08548
G1 X246.85 Y111.567 E88.40654
G1 X246.859 Y106.148 E88.65887
G1 X246.861 Y104.671 E88.72764
G1 X246.234 Y97.804 E89.04873
G1 X244.97 Y91.025 E89.36983
G1 X243.088 Y84.407 E89.69021
G1 X240.591 Y77.962 E90.01205
G1 X237.665 Y72.1 E90.31713
G1 X123.549 Y72.1 E95.63084
G1 X123.154 Y72.674 E95.66329
G1 X122.415 Y73.442 E95.71292
G1 X121.546 Y74.09 E95.76339
G1 X120.634 Y74.568 E95.81134
G1 X119.64 Y74.904 E95.8602
G1 X118.551 Y75.081 E95.91157
G1 X117.507 Y75.08 E95.96018
G1 X116.461 Y74.911 E96.00952
G1 X115.44 Y74.568 E96.05967
G1 X114.528 Y74.09 E96.10762
G1 X113.656 Y73.439 E96.15829
G1 X112.921 Y72.676 E96.20762
G1 X112.525 Y72.101 E96.24013
G1 X58.961 Y72.1 E98.7343
G1 X56.524 Y78.932 E99.07206
G1 X54.67 Y86.322 E99.42683
G1 X53.536 Y93.87 E99.78224
G1 X53.139 Y101.492 E100.13763
G1 X53.481 Y109.115 E100.49295
G1 X54.557 Y116.667 E100.84815
G1 X56.358 Y124.071 E101.20297
G1 X58.873 Y131.29 E101.55893
G1 X61.921 Y137.9 E101.89787
G0 F6000 X61.665 Y138.3
;TYPE:WALL-OUTER
G1 F1200 X240.901 Y138.299 E110.24385
G1 X243.386 Y131.948 E110.56141
G1 X245.301 Y125.299 E110.8836
G1 X246.594 Y118.487 E111.20646
G1 X247.25 Y111.586 E111.52924
G1 X247.259 Y106.149 E111.78241
G1 X247.261 Y104.653 E111.85207
G1 X246.63 Y97.749 E112.17489
G1 X245.36 Y90.933 E112.49774
G1 X243.468 Y84.28 E112.81981
G1 X240.957 Y77.8 E113.14341
G1 X237.913 Y71.7 E113.46085
G1 X123.339 Y71.7 E118.7959
G1 X122.852 Y72.408 E118.83591
G1 X122.138 Y73.149 E118.88383
G1 X121.353 Y73.739 E118.92955
G1 X120.477 Y74.2 E118.97565
G1 X119.507 Y74.524 E119.02327
G1 X118.535 Y74.681 E119.06912
G1 X117.524 Y74.679 E119.11619
G1 X116.539 Y74.518 E119.16267
G1 X115.591 Y74.197 E119.20927
G1 X114.737 Y73.749 E119.25418
G1 X113.912 Y73.128 E119.30226
G1 X113.243 Y72.433 E119.34718
G1 X112.735 Y71.701 E119.38867
G1 X58.679 Y71.7 E121.90574
G1 X56.141 Y78.816 E122.25754
G1 X54.277 Y86.244 E122.61414
G1 X53.138 Y93.83 E122.97133
G1 X52.739 Y101.49 E123.3285
G1 X53.082 Y109.152 E123.68563
G1 X54.164 Y116.743 E124.04267
G1 X55.974 Y124.184 E124.39926
G1 X58.501 Y131.44 E124.75703
G1 X61.665 Y138.3 E125.1088
G0 F6000 X62.152 Y137.54
;TYPE:SKIN
G1 F1200 X240.382 Y137.538 E133.40794
G1 X242.668 Y131.689 E133.70035
G1 X244.559 Y125.123 E134.01852
G1 X245.841 Y118.379 E134.33817
G1 X246.49 Y111.548 E134.65769
G1 X246.498 Y106.144 E134.90932
